assets/Cloud with snow/Flat/cloud_with_snow_flat.svg

<svg width="32" height="32" viewBox="0 0 32 32" fill="none" xmlns="http://www.w3.org/2000/svg">
<path d="M27.9882 3.84328C24.0846 0.038619 17.8633 0.0563025 13.9975 3.87217C13.4552 3.67298 12.8696 3.56434 12.26 3.56434C10.4534 3.56434 8.87047 4.51481 7.98122 5.93998C4.08132 6.19285 1 9.43273 1 13.3969C1 15.1533 1.61205 16.77 2.62341 18.0489C3.99738 19.8454 6.15767 21 8.5931 21H21.3084C24.4651 21 27.2531 19.4454 28.9564 17.0672C31.9727 13.1061 31.6493 7.4153 27.9882 3.84328Z" fill="#B4ACBC"/>
<path d="M10.8486 23.0303C11.1511 22.5518 11.849 22.5518 12.1515 23.0303L12.4729 23.5387C12.6303 23.7877 12.9158 23.9252 13.2086 23.893L13.8065 23.8273C14.3692 23.7655 14.8043 24.3111 14.6188 24.846L14.4217 25.4142C14.3252 25.6925 14.3957 26.0014 14.6034 26.2103L15.0275 26.6367C15.4267 27.0381 15.2714 27.7186 14.7376 27.907L14.1704 28.1072C13.8927 28.2052 13.6951 28.453 13.6614 28.7456L13.5924 29.3431C13.5274 29.9055 12.8986 30.2083 12.4185 29.9084L11.9083 29.5898C11.6585 29.4338 11.3416 29.4338 11.0918 29.5898L10.5817 29.9084C10.1015 30.2083 9.47269 29.9055 9.40777 29.3431L9.33878 28.7456C9.305 28.453 9.10743 28.2052 8.8297 28.1072L8.26252 27.907C7.7287 27.7186 7.5734 27.0381 7.9726 26.6367L8.39673 26.2103C8.60442 26.0014 8.67494 25.6925 8.57842 25.4142L8.38133 24.846C8.19582 24.3111 8.63096 23.7655 9.19369 23.8273L9.79156 23.893C10.0843 23.9252 10.3698 23.7877 10.5272 23.5387L10.8486 23.0303Z" fill="#00A6ED"/>
<path d="M21.1844 20.6655C21.075 20.248 20.5679 20.0871 20.2377 20.365C20.066 20.5096 19.8268 20.5437 19.6215 20.4528C19.2269 20.278 18.7849 20.5742 18.7963 21.0056C18.8023 21.23 18.6798 21.4382 18.4807 21.5421C18.0981 21.7416 18.054 22.2718 18.3984 22.5319C18.5776 22.6672 18.664 22.8927 18.6211 23.1131C18.5386 23.5367 18.9256 23.9018 19.3437 23.7946C19.5611 23.7389 19.7914 23.812 19.9369 23.9829C20.2167 24.3116 20.7434 24.2366 20.9202 23.8429C21.0123 23.6381 21.213 23.5037 21.4374 23.4965C21.8687 23.4827 22.1385 23.0241 21.941 22.6404C21.8383 22.4407 21.8583 22.2 21.9926 22.0201C22.2507 21.6742 22.0604 21.1774 21.6372 21.0926C21.4171 21.0484 21.2414 20.8827 21.1844 20.6655Z" fill="#00A6ED"/>
<path d="M14.575 4.70971C18.0419 1.15266 23.7332 1.09254 27.2902 4.55941C30.5868 7.77578 30.8774 12.9059 28.152 16.473C26.6289 18.6072 24.134 20 21.3084 20H8.5931C6.4789 20 4.60517 18.998 3.4128 17.4349C2.53105 16.3227 2 14.9199 2 13.3969C2 9.81983 4.89575 6.9241 8.47286 6.9241C8.51013 6.9241 8.54732 6.92441 8.58444 6.92504C9.2219 5.53209 10.6279 4.56435 12.26 4.56435C12.9766 4.56435 13.6497 4.75096 14.2333 5.07825C14.343 4.95305 14.4569 4.83015 14.575 4.70971Z" fill="#F3EEF8"/>
</svg>

<svg xmlns="http://www.w3.org/2000/svg" width="32" height="32" fill="none"><path fill="#B4ACBC" d="M27.988 3.843C24.085.04 17.863.056 13.998 3.873A5.037 5.037 0 0 0 7.982 5.94 7.47 7.47 0 0 0 1 13.396c0 1.756.612 3.373 1.623 4.652A7.492 7.492 0 0 0 8.593 21h12.715a9.388 9.388 0 0 0 7.648-3.933c3.017-3.96 2.693-9.652-.968-13.224Z"/><path fill="#00A6ED" d="M10.849 23.03a.77.77 0 0 1 1.303 0l.32.509a.77.77 0 0 0 .737.354l.598-.066a.77.77 0 0 1 .812 1.019l-.197.568a.77.77 0 0 0 .181.796l.425.427a.77.77 0 0 1-.29 1.27l-.568.2a.77.77 0 0 0-.509.639l-.069.597a.77.77 0 0 1-1.174.565l-.51-.318a.77.77 0 0 0-.816 0l-.51.318a.77.77 0 0 1-1.174-.565l-.07-.597a.77.77 0 0 0-.508-.639l-.567-.2a.77.77 0 0 1-.29-1.27l.424-.427a.77.77 0 0 0 .181-.796l-.197-.568a.77.77 0 0 1 .813-1.019l.598.066a.77.77 0 0 0 .735-.354l.322-.509ZM21.184 20.666a.588.588 0 0 0-.946-.301.587.587 0 0 1-.616.088.588.588 0 0 0-.826.553.588.588 0 0 1-.315.536.588.588 0 0 0-.083.99c.18.135.266.36.223.581a.588.588 0 0 0 .723.682.588.588 0 0 1 .593.188c.28.329.806.254.983-.14a.588.588 0 0 1 .517-.346.588.588 0 0 0 .504-.857.588.588 0 0 1 .052-.62.588.588 0 0 0-.356-.927.588.588 0 0 1-.453-.427Z"/><path fill="#F3EEF8" d="M14.575 4.71c3.467-3.557 9.158-3.617 12.715-.15 3.297 3.216 3.587 8.346.862 11.913A8.388 8.388 0 0 1 21.308 20H8.593a6.492 6.492 0 0 1-5.18-2.565A6.482 6.482 0 0 1 2 13.397a6.47 6.47 0 0 1 6.584-6.472 4.04 4.04 0 0 1 5.65-1.847c.109-.125.223-.248.341-.368Z"/></svg>
